dist/icons/svgs/copy-solid.svg

<svg xmlns="http://www.w3.org/2000/svg" width="24" height="24" fill="currentcolor" class="icon-copy-solid" viewBox="0 0 24 24">
  <path d="M11.375 2H16.2188C16.6875 2 17.1953 2.23438 17.5469 2.58594L20.1641 5.20312C20.5156 5.55469 20.75 6.0625 20.75 6.53125V15.125C20.75 16.1797 19.8906 17 18.875 17H11.375C10.3203 17 9.5 16.1797 9.5 15.125V3.875C9.5 2.85938 10.3203 2 11.375 2ZM5.125 7H8.25V9.5H5.75V19.5H13.25V18.25H15.75V20.125C15.75 21.1797 14.8906 22 13.875 22H5.125C4.07031 22 3.25 21.1797 3.25 20.125V8.875C3.25 7.85938 4.07031 7 5.125 7Z"/>
</svg>

<svg xmlns="http://www.w3.org/2000/svg" width="24" height="24" fill="currentColor" class="icon-copy-solid" viewBox="0 0 24 24">
  <path d="M11.375 2h4.844c.468 0 .976.234 1.328.586l2.617 2.617c.352.352.586.86.586 1.328v8.594c0 1.055-.86 1.875-1.875 1.875h-7.5A1.85 1.85 0 0 1 9.5 15.125V3.875C9.5 2.859 10.32 2 11.375 2m-6.25 5H8.25v2.5h-2.5v10h7.5v-1.25h2.5v1.875c0 1.055-.86 1.875-1.875 1.875h-8.75a1.85 1.85 0 0 1-1.875-1.875V8.875C3.25 7.859 4.07 7 5.125 7"/>
</svg>
